src/public/circuit.svg

<svg width="20" height="20" viewBox="0 0 20 20" fill="none" xmlns="http://www.w3.org/2000/svg">
<path d="M18.3333 0H1.66667C1.22464 0 0.800716 0.175595 0.488155 0.488155C0.175595 0.800716 0 1.22464 0 1.66667L0 18.3333C0 18.7754 0.175595 19.1993 0.488155 19.5118C0.800716 19.8244 1.22464 20 1.66667 20H18.3333C18.7754 20 19.1993 19.8244 19.5118 19.5118C19.8244 19.1993 20 18.7754 20 18.3333V1.66667C20 1.22464 19.8244 0.800716 19.5118 0.488155C19.1993 0.175595 18.7754 0 18.3333 0ZM5 13.3333C4.83518 13.3333 4.67407 13.2845 4.53702 13.1929C4.39998 13.1013 4.29317 12.9712 4.2301 12.8189C4.16703 12.6666 4.15052 12.4991 4.18268 12.3374C4.21483 12.1758 4.2942 12.0273 4.41074 11.9107C4.52729 11.7942 4.67577 11.7148 4.83742 11.6827C4.99908 11.6505 5.16663 11.667 5.3189 11.7301C5.47117 11.7932 5.60132 11.9 5.69289 12.037C5.78446 12.1741 5.83333 12.3352 5.83333 12.5C5.83311 12.7209 5.74524 12.9328 5.58901 13.089C5.43278 13.2452 5.22095 13.3331 5 13.3333ZM18.3333 5H16.5133C16.3168 4.44399 15.9299 3.97537 15.4213 3.67697C14.9126 3.37858 14.3148 3.26961 13.7336 3.36934C13.1523 3.46906 12.625 3.77106 12.2449 4.22195C11.8648 4.67284 11.6563 5.24359 11.6563 5.83333C11.6563 6.42307 11.8648 6.99383 12.2449 7.44472C12.625 7.89561 13.1523 8.1976 13.7336 8.29733C14.3148 8.39706 14.9126 8.28809 15.4213 7.98969C15.9299 7.69129 16.3168 7.22268 16.5133 6.66667H18.3333V10H15V11.6667H18.3333V13.3333H16.6667V15H18.3333V18.3333H11.6667V17.3467C12.2227 17.1501 12.6913 16.7633 12.9897 16.2546C13.2881 15.7459 13.3971 15.1481 13.2973 14.5669C13.1976 13.9856 12.8956 13.4584 12.4447 13.0782C11.9938 12.6981 11.4231 12.4896 10.8333 12.4896C10.2436 12.4896 9.67284 12.6981 9.22195 13.0782C8.77106 13.4584 8.46906 13.9856 8.36934 14.5669C8.26961 15.1481 8.37858 15.7459 8.67697 16.2546C8.97537 16.7633 9.44399 17.1501 10 17.3467V18.3333H5.83333V14.8467C6.38934 14.6501 6.85796 14.2633 7.15636 13.7546C7.45476 13.2459 7.56372 12.6481 7.464 12.0669C7.36427 11.4856 7.06227 10.9584 6.61138 10.5782C6.16049 10.1981 5.58974 9.98964 5 9.98964C4.41026 9.98964 3.83951 10.1981 3.38862 10.5782C2.93773 10.9584 2.63573 11.4856 2.536 12.0669C2.43628 12.6481 2.54524 13.2459 2.84364 13.7546C3.14204 14.2633 3.61066 14.6501 4.16667 14.8467V18.3333H1.66667V1.66667H5V6.66667H6.66667V1.66667H8.33333V10H10V1.66667H18.3333V5ZM15 5.83333C15 5.99815 14.9511 6.15927 14.8596 6.29631C14.768 6.43335 14.6378 6.54016 14.4856 6.60323C14.3333 6.66631 14.1657 6.68281 14.0041 6.65065C13.8424 6.6185 13.694 6.53913 13.5774 6.42259C13.4609 6.30605 13.3815 6.15756 13.3493 5.99591C13.3172 5.83426 13.3337 5.6667 13.3968 5.51443C13.4598 5.36216 13.5666 5.23201 13.7037 5.14044C13.8407 5.04887 14.0018 5 14.1667 5C14.3876 5.00022 14.5994 5.08809 14.7557 5.24432C14.9119 5.40055 14.9998 5.61239 15 5.83333Z" fill="white"/>
</svg>

<svg xmlns="http://www.w3.org/2000/svg" width="20" height="20" fill="none" xmlns:v="https://vecta.io/nano"><path d="M18.333 0H1.667C1.225 0 .801.176.488.488S0 1.225 0 1.667v16.667c0 .442.176.866.488 1.178S1.225 20 1.667 20h16.667c.442 0 .866-.176 1.178-.488s.488-.736.488-1.178V1.667c0-.442-.176-.866-.488-1.179S18.775 0 18.333 0zM5 13.333c-.165 0-.326-.049-.463-.14s-.244-.222-.307-.374-.08-.32-.047-.481.112-.31.228-.427.265-.196.427-.228.329-.016.481.047.282.17.374.307.14.298.14.463c0 .221-.088.433-.244.589s-.368.244-.589.244zM18.333 5h-1.82a2.5 2.5 0 0 0-2.78-1.631 2.5 2.5 0 0 0-2.077 2.464 2.5 2.5 0 0 0 2.077 2.464 2.5 2.5 0 0 0 2.78-1.631h1.82V10H15v1.667h3.333v1.667h-1.667V15h1.667v3.333h-6.667v-.987a2.5 2.5 0 0 0 1.631-2.78 2.5 2.5 0 0 0-2.464-2.077 2.5 2.5 0 0 0-2.464 2.077A2.5 2.5 0 0 0 10 17.347v.987H5.833v-3.487a2.5 2.5 0 0 0 1.631-2.78A2.5 2.5 0 0 0 5 9.99a2.5 2.5 0 0 0-2.464 2.077 2.5 2.5 0 0 0 1.631 2.78v3.487h-2.5V1.667H5v5h1.667v-5h1.667V10H10V1.667h8.333V5zM15 5.833c0 .165-.049.326-.14.463s-.222.244-.374.307-.32.08-.482.047-.31-.112-.427-.228-.196-.265-.228-.427-.016-.329.048-.481a.83.83 0 0 1 .307-.374c.137-.092.298-.14.463-.14.221 0 .433.088.589.244s.244.368.244.589z" fill="#fff"/></svg>
